svg/fluentui-system-icons/ic_fluent_person_support_20_regular.svg

<svg width="20" height="20" viewBox="0 0 20 20" fill="none" xmlns="http://www.w3.org/2000/svg">
<path d="M6.53039 4.00821C7.22083 2.80808 8.51605 2 10 2C12.2091 2 14 3.79086 14 6C14 8.20914 12.2091 10 10 10C8.40521 10 7.02841 9.0667 6.38598 7.71649C6.13814 7.89746 5.8327 8.00427 5.50232 8.00427H5.0022V8.25891C5.0022 8.44889 5.07392 8.62212 5.19176 8.75301C5.32913 8.59883 5.52931 8.50171 5.7522 8.50171C6.16641 8.50171 6.5022 8.83711 6.5022 9.25085C6.5022 9.6646 6.16641 10 5.7522 10C5.7278 10 5.70368 9.99884 5.67989 9.99656C4.74788 9.96442 4.0022 9.19875 4.0022 8.25891L4.00232 4.50744C4.00232 4.2313 4.22618 4.00744 4.50232 4.00744L6.50232 4.00744C6.51174 4.00744 6.5211 4.0077 6.53039 4.00821ZM7.00232 6.11906C7.06483 7.72073 8.38302 9 10 9C11.6569 9 13 7.65685 13 6C13 4.34315 11.6569 3 10 3C8.38302 3 7.06483 4.27927 7.00232 5.88094V6.11906ZM6.00232 5.86248V5.00744L5.00232 5.00744L5.00232 7.00427H5.50232C5.77846 7.00427 6.00232 6.78042 6.00232 6.50427V6.13752C6.00078 6.09187 6 6.04603 6 6C6 5.95397 6.00078 5.90813 6.00232 5.86248ZM3 13C3 11.8869 3.90315 11 5.00873 11L15 11C16.1045 11 17 11.8956 17 13C17 14.6912 16.1672 15.9663 14.865 16.7966C13.583 17.614 11.8547 18 10 18C8.14526 18 6.41697 17.614 5.13499 16.7966C3.83281 15.9663 3 14.6912 3 13ZM5.00873 12C4.44786 12 4 12.4467 4 13C4 14.3088 4.62226 15.2837 5.67262 15.9534C6.74318 16.636 8.26489 17 10 17C11.7351 17 13.2568 16.636 14.3274 15.9534C15.3777 15.2837 16 14.3088 16 13C16 12.4478 15.5522 12 15 12L5.00873 12Z" fill="#212121"/>
</svg>

<svg xmlns="http://www.w3.org/2000/svg" width="20" height="20"><path d="M6.53 4.008a4 4 0 1 1-.144 3.708 1.493 1.493 0 0 1-.884.288h-.5v.255c0 .19.072.363.19.494a.749.749 0 0 1 1.31.498.75.75 0 0 1-.822.746 1.739 1.739 0 0 1-1.678-1.738V4.507a.5.5 0 0 1 .5-.5h2l.028.001Zm.472 2.111a3 3 0 1 0 0-.238v.238Zm-1-.257v-.855h-1v1.997h.5a.5.5 0 0 0 .5-.5v-.366a4.078 4.078 0 0 1 0-.276ZM3 13c0-1.113.903-2 2.009-2H15a2 2 0 0 1 2 2c0 1.691-.833 2.966-2.135 3.797C13.583 17.614 11.855 18 10 18c-1.855 0-3.583-.386-4.865-1.203C3.833 15.967 3 14.69 3 13Zm2.009-1C4.448 12 4 12.447 4 13c0 1.309.622 2.284 1.673 2.953C6.743 16.636 8.265 17 10 17c1.735 0 3.257-.364 4.327-1.047C15.377 15.283 16 14.31 16 13a1 1 0 0 0-1-1H5.009Z"/></svg>
